X:1400
T:The Last House in Connaught
Q:250
R:reel
D:Paddy Glackin: In Full Spate.
Z:id:hn-reel-84
M:C
L:1/8
K:DMix
fddc dcAB|c2dB cAGE|D2 (3FED ADFD|(3EFG AB cdeg|
fddc dcAB|c2dB cAGE|D2 (3FED FGAB|cAGE EDD2:|
|:fdd^c defg|ad d2 adfd|eccB cdef|gc c2 g2eg|
fddc dcAB|c2dB cAGE|D2 (3FED FGAB|cAGE EDD2:|
